docs/img/arrow-left.svg

<svg xmlns="http://www.w3.org/2000/svg" width="19" height="15"><path fill-rule="evenodd" fill="#FF5000" d="M19 8H1.73l6.285 6.285-.73.73L.27 8H0v-.27l-.015-.015L0 7.701v-.402l-.015-.014L0 7.27V7h.27L7.285-.015l.73.73L1.73 7H19v1z"/></svg>

<svg
        xmlns="http://www.w3.org/2000/svg"
        xmlns:xlink="http://www.w3.org/1999/xlink"
        width="19px" height="15px">
    <path fill-rule="evenodd"  fill="rgb(255, 80, 0)"
          d="M19.000,8.000 L1.730,8.000 L8.015,14.285 L7.285,15.015 L0.270,8.000 L0.000,8.000 L0.000,7.730 L-0.015,7.715 L0.000,7.701 L0.000,7.299 L-0.015,7.285 L0.000,7.270 L0.000,7.000 L0.270,7.000 L7.285,-0.015 L8.015,0.715 L1.730,7.000 L19.000,7.000 L19.000,8.000 Z"/>
</svg>
